X: 38213
T: Spurlock's Half-Century
R: reel
M: 4/4
K: Gmajor
|:B,3 C DGFG|B/A/GdG eGdG|cdcB A/B/cAG|F/E/D AD BDAc|
BGGA GEDC|B,G,B,D GBdg|ec~c2 Aceg|1 fdcA GEDC:|2 dcBA GBdg||
|:bg~g2 dB~B2|GDGB dgfg|ec~c2 abag|f/g/afe dbab|
gd~d2 bg~g2|dB~B2 GABd|1 ec~c2 Aceg|fdcA GBdg:|2 ec~c2 agfe|dcBA GEDC||

